public/assets/standards/sci-ai/transforming-icon-4.svg

<svg width="36" height="36" viewBox="0 0 36 36" fill="none" xmlns="http://www.w3.org/2000/svg">
<path d="M35.7199 25.47H11.9399V34.5H35.7199V25.47Z" fill="#A4C352"/>
<path d="M33.47 28.6699H26.96V31.2999H33.47V28.6699Z" fill="#006D68"/>
<path d="M35.7199 13.49H11.9399V22.52H35.7199V13.49Z" fill="#A4C352"/>
<path d="M33.47 16.6899H26.96V19.3199H33.47V16.6899Z" fill="#006D68"/>
<path d="M35.7199 1.5H11.9399V10.53H35.7199V1.5Z" fill="#A4C352"/>
<path d="M33.47 4.69995H26.96V7.32995H33.47V4.69995Z" fill="#006D68"/>
<path d="M11.94 29.66C18.3797 29.66 23.6 24.4396 23.6 18C23.6 11.5603 18.3797 6.33997 11.94 6.33997C5.50039 6.33997 0.280029 11.5603 0.280029 18C0.280029 24.4396 5.50039 29.66 11.94 29.66Z" fill="#006D68"/>
<path d="M23.5999 18C23.5999 24.23 18.7099 29.32 12.5599 29.64C12.3599 29.65 11.9399 29.66 11.9399 29.66V6.33997C11.9399 6.33997 12.6099 6.34997 12.9499 6.37997C18.9199 6.88997 23.5999 11.9 23.5999 17.99V18Z" fill="#006D68"/>
<path d="M22.0601 18C22.0601 18 17.5301 24.46 11.9401 24.46C6.35006 24.46 1.81006 18 1.81006 18C1.81006 18 6.34006 11.54 11.9301 11.54C17.5201 11.54 22.0501 18 22.0501 18H22.0601Z" fill="white"/>
<path d="M11.94 21.49C13.9006 21.49 15.49 19.9006 15.49 17.94C15.49 15.9794 13.9006 14.39 11.94 14.39C9.9794 14.39 8.39001 15.9794 8.39001 17.94C8.39001 19.9006 9.9794 21.49 11.94 21.49Z" fill="#006D68"/>
</svg>

<svg xmlns="http://www.w3.org/2000/svg" width="36" height="36" fill="none" viewBox="0 0 36 36"><path fill="#a4c352" d="M35.72 25.47H11.94v9.03h23.78z"/><path fill="#006d68" d="M33.47 28.67h-6.51v2.63h6.51z"/><path fill="#a4c352" d="M35.72 13.49H11.94v9.03h23.78z"/><path fill="#006d68" d="M33.47 16.69h-6.51v2.63h6.51z"/><path fill="#a4c352" d="M35.72 1.5H11.94v9.03h23.78z"/><path fill="#006d68" d="M33.47 4.7h-6.51v2.63h6.51zM11.94 29.66c6.44 0 11.66-5.22 11.66-11.66S18.38 6.34 11.94 6.34.28 11.56.28 18 5.5 29.66 11.94 29.66"/><path fill="#006d68" d="M23.6 18c0 6.23-4.89 11.32-11.04 11.64-.2.01-.62.02-.62.02V6.34s.67.01 1.01.04c5.97.51 10.65 5.52 10.65 11.61z"/><path fill="#fff" d="M22.06 18s-4.53 6.46-10.12 6.46S1.81 18 1.81 18s4.53-6.46 10.12-6.46S22.05 18 22.05 18z"/><path fill="#006d68" d="M11.94 21.49a3.55 3.55 0 1 0 0-7.1 3.55 3.55 0 0 0 0 7.1"/></svg>
